X:1
T:All, All for Thee
T:James M. Dungan
T:All, All for Thee
T:Public Domain
T:Public Domain
C:James M. Dungan
Z:Public Domain
%%score ( 1 2 ) ( 3 4 )
L:1/8
M:4/4
K:F
V:1 treble 
V:2 treble 
V:3 bass 
V:4 bass 
V:1
 [Fc]2 [Fc]>[Fd] [Fc]3 [FA] | FF[FG][FA] [FB] [FA]2 [FA] | [EG]2 [EG]2 [EG]2 ([FA][GB]) | %3
w: 1.~All, all for Thee, O|take me now en- tire- ly; Re-|note with Thine own *|
w: 2.~I give my heart, I|long to love Thee bet- ter Than|I have done in *|
w: 3.~All, all for Thee, my-|self in all my weak- ness, Un-|lone, the feeb- lest *|
w: 4.~Oh, Mas- ter, by Thine|own most ho- ly Spir- it, Send|mu- sic o’er the *|
 [Bd][Ac][^G=B][=G_B] [FA]4 | [Fc]2 [Fc]>[Fd] [Fc]3 [FA] | FF[FG][FA] [FB] [FA]2 [FA] | %6
w: gen- tle hand; I give|my- self a- fresh in-|to Thy keep- ing, To do, or|
w: years be- fore; That all|I do may be a|“joy not du- ty,” Lord Je- sus|
w: chord to raise; An in-|stru- ment dis- cord- ant,|worn and worth- less, But rea- dy|
w: earth thro’ me; So true,|so beau- ti- ful, so|soul re- fresh- ing, That those who|
 [DG]2 [CA]2 [Dc][DB][B,D][DG] | [CF]2 [CE]2 [CF]4 ||"^Refrain" [FB]2 [FB]>[FB] [FB]2 [DF][FB] | %9
w: as Thou shalt com- mand. *|||
w: may I love Thee more. All,|all for Thee,|Sav- ior, All, all for Thee,|
w: used to sound Thy praise. *|||
w: may learn more of Thee. *|||
 [FA]2 [FA]>[FA] [FA]3 [FA] | [EG]2 [EG]2 [FG][FG][FA][FG] | (EDEF G2) [Ec]2 | %12
w: |||
w: Oh, take my life in-|to Thy hand, Oh, give me|Thy * * * * Spir-|
w: |||
w: |||
 [Fc]2 [Fc]>[Fc] [Fd][Fc](F[FG]) | [FA]2 [FA]>[FA] [FB] [FA]2 [FA] | [DG]2 [DB]2 [FA][CG][CF][CE] | %15
w: |||
w: And I shall be ho- ly, *|Then take my life in- to|Thy hand. * * * *|
w: |||
w: |||
 [CF]8 |] %16
w: |
w: |
w: |
w: |
V:2
 x8 | FF x6 | x8 | x8 | x8 | FF x6 | x8 | x8 || x8 | x8 | x8 | c6 x2 | x8 | x8 | x8 | x8 |] %16
w: |tune each||||suf- fer|||||||||||
w: |ev- er||||grant it,||||||it|||||
w: |fit, a-||||to be|||||||||||
w: |heav’n- ly||||hear it,|||||||||||
V:3
 [F,A,]2 [F,A,]>[F,B,] [F,A,]3 [F,C] | [F,A,][F,A,][F,B,][F,C] [F,D] [F,C]2 [F,C] | %2
w: ~ ~ ~ ~ ~|~ ~ ~ ~ ~ ~ ~|
 [C,C]2 [C,C]2 [C,C]2 [C,C]2 | [C,C][C,C][C,C][C,C] [F,C]4 | [F,A,]2 [F,A,]>[F,B,] [F,A,]3 [F,C] | %5
w: ~ ~ ~ ~|~ ~ ~ ~ ~|~ ~ ~ ~ ~|
 [F,A,][F,A,][F,B,][F,C] [F,D] [F,C]2 [F,C] | [B,,B,]2 [G,,C]2 [G,,B,][G,,B,][B,,G,][B,,B,] | %7
w: ~ ~ ~ ~ ~ ~ ~|~ ~ ~ ~ ~ ~|
 [C,A,]2 [C,B,]2 [F,A,]4 || [B,,D]2 [B,,D]>[B,,D] [B,,D]2 [B,,B,][B,,D] | %9
w: ~ ~ ~|~ ~ ~ ~ ~ ~|
 [F,C]2 [F,C]>[F,C] [F,C]3 [F,C] | [G,C]2 [G,C]2 [G,=B,][G,B,][G,B,][G,B,] | G,F,G,A, B,2 [C,B,]2 | %12
w: ~ ~ ~ ~ ~|~ ~ ~ ~ ~ ~|~ in- to Thy hand, *|
 [F,A,]2 [F,A,]>[F,A,] [F,B,][F,A,]([F,A,][F,B,]) | [F,C]2 [F,C]>[F,C] [F,D] [F,C]2 [F,C] | %14
w: ||
 [B,,B,]2 [G,,D]2 [C,C][C,B,][C,A,][C,G,] | [F,A,]8 |] %16
w: ||
V:4
 x8 | x8 | x8 | x8 | x8 | x8 | x8 | x8 || x8 | x8 | x8 | C,6 x2 | x8 | x8 | x8 | x8 |] %16

